X: 5
T: Poor But Happy At 53
R: reel
M: 4/4
L: 1/8
K: Emin
|:EFGA BE E2|c2 Bc BE E2|DEFG AD D2|ADBD A2 GF|EFGA B2 ed|edBG A2 GA|BAGB AF F2|GEFD E2 E2:||:edBA B2 ef|gfed BA (3Bcd |e3f g3e|f3d e2 ef|(3gfe fd edBA|BGAF GE E2|BAGB AF F2|GEFD E4:|


Tune 314	Setting 22161

